X:1
T:Pekanbaru, 87.87 D
T:J. Stanley Bird, 1875
T:Pekanbaru, 87.87 D
T:Public Domain
C:J. Stanley Bird, 1875
Z:Public Domain
%%score ( 1 2 ) ( 3 4 )
L:1/8
M:6/8
K:Bb
V:1 treble 
V:2 treble 
V:3 bass 
V:4 bass 
V:1
 [DF] | [DF]2 [DF] [Fd]2 [Ec] | [DB]2 [EG] [DF]2 [DF] | [EF]2 [EG] [EA]2 [EB] | %4
 [E=B]3 [Ec] z [EF] | [DF]2 [DF] [Fd]2 [Ec] | [DB]2 [EA] [DB]2 [DF] | [EG]2 [EG] (AG)[EA] | %8
 [Ec]3 [DB]2 [DF] | ([DF][B,D])[CE] (FB)[Ec] | ([Fd][Ec])[DB] [DF]2 [Fd] | %11
 ([Ge][Fd])[Ec] [DB][CA][DB] | [Fd]3 [Fc]2 [DF] | ([DF][B,D])[CE] (FB)[Ec] | (dc)[_Ad] [Ge]2 [Ge] | %15
 (dc)[FB] (AG)[EA] | [Ec]3 [DB]2 |] %17
V:2
 x | x6 | x6 | x6 | x6 | x6 | x6 | x3 E2 x | x6 | x3 D2 x | x6 | x6 | x6 | x3 D2 x | F2 x4 | %15
 F2 E2 x2 | x5 |] %17
V:3
 [B,,B,] | [B,,B,]2 [B,,B,] [B,,B,]2 [B,,B,] | [B,,B,]2 [B,,B,] [B,,B,]2 [B,,B,] | %3
 [C,A,]2 [C,A,] [C,A,]2 [C,A,] | [C,A,]3 [C,A,] z [F,A,] | [B,,B,]2 [B,,B,] [B,,B,]2 [B,,B,] | %6
 [B,,B,]2 [B,,B,] [B,,B,]2 [B,,B,] | [E,B,]2 [E,B,] F,2 F, | [F,A,]3 [B,,B,]2 [B,,B,] | %9
 [B,,B,]2 [B,,B,] [B,,B,]2 [B,,B,] | [B,,B,]2 [B,,B,] [B,,B,]2 [B,,B,] | %11
 [B,,B,]2 [B,,B,] [B,,B,]2 [B,,B,] | [F,B,]3 [F,A,]2 [B,,B,] | [B,,B,]2 [B,,B,] [B,,B,]2 [B,,B,] | %14
 [B,,B,]2 [B,,B,] [E,B,]2 [E,B,] | (B,E)[F,D] [F,C]2 [F,C] | [F,A,]3 [B,,B,]2 |] %17
V:4
 x | x6 | x6 | x6 | x6 | x6 | x6 | x3 F,2 F, | x6 | x6 | x6 | x6 | x6 | x6 | x6 | F,2 x4 | x5 |] %17

